symbols/web/folder_special/materialsymbolsrounded/folder_special_grad200_48px.svg

<svg xmlns="http://www.w3.org/2000/svg" height="48" width="48"><path d="m29.85 30.35 2.25 1.6q.6.4 1.2 0t.4-1.1l-.95-2.9 2.55-2.15q.55-.45.3-1.1-.25-.65-.95-.65H31.7l-.9-2.75q-.25-.65-.95-.675-.7-.025-.95.625l-.95 2.8H25q-.7 0-.95.65t.3 1.1l2.55 2.15-.9 2.95q-.25.7.35 1.1.6.4 1.2 0ZM6.9 41q-1.45 0-2.55-1.125-1.1-1.125-1.1-2.525V10.5q0-1.4 1.1-2.525T6.9 6.85h12q.75 0 1.425.3t1.175.8l2.55 2.55H41.2q1.4 0 2.525 1.125t1.125 2.525v23.2q0 1.4-1.125 2.525T41.2 41Zm0-30.5v26.85h34.3v-23.2H22.55L18.9 10.5h-12Zm0 0V37.35Z"/></svg>

<svg xmlns="http://www.w3.org/2000/svg" height="48" width="48"><path d="M29.85 30.35 32.1 31.95Q32.7 32.35 33.3 31.95Q33.9 31.55 33.7 30.85L32.75 27.95L35.3 25.8Q35.85 25.35 35.6 24.7Q35.35 24.05 34.65 24.05H31.7L30.8 21.3Q30.55 20.65 29.85 20.625Q29.15 20.6 28.9 21.25L27.95 24.05H25Q24.3 24.05 24.05 24.7Q23.8 25.35 24.35 25.8L26.9 27.95L26 30.9Q25.75 31.6 26.35 32Q26.95 32.4 27.55 32ZM6.9 41Q5.45 41 4.35 39.875Q3.25 38.75 3.25 37.35V10.5Q3.25 9.1 4.35 7.975Q5.45 6.85 6.9 6.85H18.9Q19.65 6.85 20.325 7.15Q21 7.45 21.5 7.95L24.05 10.5H41.2Q42.6 10.5 43.725 11.625Q44.85 12.75 44.85 14.15V37.35Q44.85 38.75 43.725 39.875Q42.6 41 41.2 41ZM6.9 10.5V37.35Q6.9 37.35 6.9 37.35Q6.9 37.35 6.9 37.35H41.2Q41.2 37.35 41.2 37.35Q41.2 37.35 41.2 37.35V14.15Q41.2 14.15 41.2 14.15Q41.2 14.15 41.2 14.15H22.55L18.9 10.5H6.9Q6.9 10.5 6.9 10.5Q6.9 10.5 6.9 10.5ZM6.9 10.5Q6.9 10.5 6.9 10.5Q6.9 10.5 6.9 10.5V14.15Q6.9 14.15 6.9 14.15Q6.9 14.15 6.9 14.15V37.35Q6.9 37.35 6.9 37.35Q6.9 37.35 6.9 37.35Q6.9 37.35 6.9 37.35Q6.9 37.35 6.9 37.35Z"/></svg>
